picto/disposal-of-sanitary-products.svg

<svg class="color-immutable" width="24" height="24" viewBox="0 0 24 24" fill="none" xmlns="http://www.w3.org/2000/svg"><path d="M0 22.5V1.5C0 0.675 0.675 0 1.5 0H22.5C23.325 0 24 0.675 24 1.5V22.5C24 23.325 23.325 24 22.5 24H1.5C0.675 24 0 23.325 0 22.5Z" fill="#2D327D"/><path d="M6.04102 14.897C5.36602 13.893 4.34202 13.212 3.15602 12.977L2.99902 13.778L6.79502 17.835C6.89002 16.799 6.62902 15.771 6.04102 14.897Z" fill="white"/><path d="M15.767 16.002C16.998 15.174 18.473 14.867 19.93 15.132L20.415 12.658L7.52802 15.346C7.92402 16.339 8.02902 17.425 7.82202 18.499L13.378 19.587C13.672 18.114 14.519 16.841 15.767 16.002Z" fill="white"/><path d="M6.963 14.277C6.973 14.292 6.983 14.308 6.993 14.323L13.441 12.978L4.094 8.192L3.37 11.886C4.847 12.178 6.123 13.027 6.963 14.277Z" fill="white"/><path d="M20.646 11.474L21.002 9.65799L4.44204 6.41299L4.31604 7.05699L15.174 12.616L20.646 11.474Z" fill="white"/><path d="M14.596 19.307L19.559 17.021L19.716 16.221C17.461 15.82 15.279 17.168 14.596 19.307Z" fill="white"/></svg>

<svg class="color-immutable" width="24" height="24" viewBox="0 0 24 24" fill="none" xmlns="http://www.w3.org/2000/svg"><g clip-path="url(#a)"><path d="M0 22.5v-21C0 .675.675 0 1.5 0h21c.825 0 1.5.675 1.5 1.5v21c0 .825-.675 1.5-1.5 1.5h-21C.675 24 0 23.325 0 22.5Z" fill="#2D327D"/><path d="M6.041 14.897a4.509 4.509 0 0 0-2.885-1.92l-.157.801 3.796 4.057a4.501 4.501 0 0 0-.754-2.938ZM15.767 16.002a5.611 5.611 0 0 1 4.163-.87l.485-2.474-12.887 2.688c.396.993.501 2.079.294 3.153l5.556 1.088a5.616 5.616 0 0 1 2.389-3.585ZM6.963 14.277l.03.046 6.448-1.345-9.347-4.786-.724 3.694a5.613 5.613 0 0 1 3.593 2.391ZM20.646 11.474l.356-1.816-16.56-3.245-.126.644 10.858 5.559 5.472-1.142Z" fill="#fff"/><path d="m14.596 19.307 4.963-2.286.157-.8a4.548 4.548 0 0 0-5.12 3.086Z" fill="#fff"/></g><defs><clipPath id="a"><path fill="#fff" d="M0 0h24v24H0z"/></clipPath></defs></svg>
